common/src/main/resources/icons/expui/general/drag.svg

<svg xmlns="http://www.w3.org/2000/svg" width="16" height="16" data-big="true" viewBox="0 0 24 24"><path fill="#FFB74D" d="M7 19v-2h2v2zm4 0v-2h2v2zm4 0v-2h2v2zm-8-4v-2h2v2zm4 0v-2h2v2zm4 0v-2h2v2zm-8-4V9h2v2zm4 0V9h2v2zm4 0V9h2v2zM7 7V5h2v2zm4 0V5h2v2zm4 0V5h2v2z"/></svg>

<!--
  - The MIT License (MIT)
  -
  - Copyright (c) 2015-2024 Elior "Mallowigi" Boukhobza
  -
  - Permission is hereby granted, free of charge, to any person obtaining a copy
  - of this software and associated documentation files (the "Software"), to deal
  - in the Software without restriction, including without limitation the rights
  - to use, copy, modify, merge, publish, distribute, sublicense, and/or sell
  - copies of the Software, and to permit persons to whom the Software is
  - furnished to do so, subject to the following conditions:
  -
  - The above copyright notice and this permission notice shall be included in all
  - copies or substantial portions of the Software.
  -
  - THE SOFTWARE IS PROVIDED "AS IS", WITHOUT WARRANTY OF ANY KIND, EXPRESS OR
  - IMPLIED, INCLUDING BUT NOT LIMITED TO THE WARRANTIES OF MERCHANTABILITY,
  - FITNESS FOR A PARTICULAR PURPOSE AND NONINFRINGEMENT. IN NO EVENT SHALL THE
  - AUTHORS OR COPYRIGHT HOLDERS BE LIABLE FOR ANY CLAIM, DAMAGES OR OTHER
  - LIABILITY, WHETHER IN AN ACTION OF CONTRACT, TORT OR OTHERWISE, ARISING FROM,
  - OUT OF OR IN CONNECTION WITH THE SOFTWARE OR THE USE OR OTHER DEALINGS IN THE
  - SOFTWARE.
  -->

<svg data-big="true" width="16px" height="16px" xmlns="http://www.w3.org/2000/svg" viewBox="0 0 24 24">
  <path fill="#FFB74D"
        d="M7,19V17H9V19H7M11,19V17H13V19H11M15,19V17H17V19H15M7,15V13H9V15H7M11,15V13H13V15H11M15,15V13H17V15H15M7,11V9H9V11H7M11,11V9H13V11H11M15,11V9H17V11H15M7,7V5H9V7H7M11,7V5H13V7H11M15,7V5H17V7H15Z"/>
</svg>
